/* XPM */
static char * 5x6 logo_xpm[] = {
"400 56 2 1",
" 	g None",
".	g #ffffff",
"...............................................................                                                                           ..................................................                                                                                                                                                                                                                    ",
"...............................................................                                                                        .....................................................                                                                                                                                                                                                                    ",
"...............................................................                                                                       ......................................................                                                                                                                                                                                                                    ",
"...............................................................                                                                      .......................................................                                                                                                                                                                                                                    ",
"...............................................................                                                                     ........................................................                                                                                                                                                                                                                    ",
"...............................................................                                                                    .........................................................                                                                                                                                                                                                                    ",
"...............................................................                                                                   ..........................................................                                                                                                                                                                                                                    ",
"...............................................................                                                                   ..........................................................                                                                                                                                                                                                                    ",
"...............................................................                                                                   ..........................................................                                                                                                                                                                                                                    ",
"...............................................................                                                                  ...........................................................                                                                                                                                                                                                                    ",
"...............................................................                                                                  ...........................................................                                                                                                                                                                                                                    ",
"...............................................................                                                                  ...........................................................                                                                                                                                                                                                                    ",
"...............                                                                                                                  .................                                                                                                                                                                                                                                                              ",
"...............                                                                                                                  ................                                                                                                                                                                                                                                                               ",
"..............                                                                                                                   ...............                                                            .............   ....   ................. ................   ....              .............    ....         ....                                                                                    ",
"..............                                                      ..............                            ..............     ...............                                                            ..............  ....  .................. .................  ....             ...............   ....         ....                                                                                    ",
"..............                                                       ..............                          ..............      ...............                                                            ............... ....  .................. .................  ....            .................  ....         ....                                                                                    ",
"..............                                                        ..............                        ..............       ...............                                                                       .... ....  ....                            ....  ....            ....         ....  ....         ....                                                                                    ",
"...............                                                        ..............                      ..............        ................                                                                      .... ....  ....                            ....  ....            ....         ....  ....         ....           ..........    ....      ... ..........                                   ",
"...............                                                         ..............                    ..............         .................                                                                     .... ....  ....                            ....  ....            ....         ....  ....         ....          ............  ......     ... ...........                                  ",
"..........................................................               ..............                  ..............          ........................................................                   ....       .... ....  ................   .................  ....            ....         ....  .................          ...      ...  .......    ...         ...                                  ",
"............................................................              ..............                ..............           ..........................................................                 ....       .... ....  .................  .................  ....            ...........  ....   ...............           ...      ...  ... ...    ...         ...                                  ",
".............................................................              ..............              ..............            ...........................................................                ....       .... ....   ................  ................   ....            ...........  ....    ..............           ...      ...  ...  ...   ... ...     ...                                  ",
"..............................................................              ..............            ..............             ............................................................               ....       .... ....               ....  ....               ....            ...........  ....         ....                ........ ...  ...   ...  ... ...     ...                                  ",
"..............................................................               ..............          ..............              ............................................................               ....       .... ....               ....  ....               ....            ....         ....         ....                ........ ...  ...    ... ... ...     ...                                  ",
"...............................................................              ...............        ...............              .............................................................              ............... ....   ................  ....               ..............  ....         ....         ....                ...      ...  ...    ....... ...     ...                                  ",
"...............................................................               ...............      ...............               .............................................................              ..............  ....   ................  ....               ..............  ....         ....         ....                ...      ...  ...     ...... ...........                                  ",
" ..............................................................                ...............    ...............                .............................................................              .............   ....   ...............   ....                .............  ....         ....         ....                ...      ...  ...      ....  ..........                                   ",
" ..............................................................                 ...............  ...............                 .............................................................                                                                                                                                                                                                                  ",
"  .............................................................                  ..............................                  .............................................................                                                                                                                                                                                                                  ",
"   ............................................................                   ............................                   .............................................................                                                                                                                                                                                                                  ",
"     ..........................................................                    ..........................                    .............................................................                                                                                                                                                                                                                  ",
"                                              .................                     ........................                     .................                           .................                                                                                                                                                                                                                  ",
"                                               ................                      ......................                      ................                             ................                                                                                                                                                                                                                  ",
"                                                ...............                      ......................                      ...............                               ...............                                                                                                                                                                                                                  ",
"                                                ...............                     ........................                     ...............                               ...............                                                                                                                                                                                                                  ",
"                                                ...............                    ..........................                    ...............                               ...............                                                                                                                                                                                                                  ",
"                                                ...............                   ............................                   ...............                               ...............                                                                                                                                                                                                                  ",
"                                                ...............                  ..............................                  ...............                               ...............                                                                                                                                                                                                                  ",
"                                               ................                 ...............  ...............                 ................                             ................              ................      ..............      ....           ....                                                                                                                                       ",
"                                              .................                ...............    ...............                .................                           .................              .................    ................    ......         ......                                                                                                                                      ",
"  .............................................................               ...............      ..............                .............................................................              .................   ..................  ........       ........                                                                                                                                     ",
"  .............................................................               ..............        ..............               .............................................................                           ....   ....          ....  ........       ........                      ...        ....                                                           ...                                  ",
"  .............................................................              ..............          ..............              .............................................................                           ....   ....          ....  .........     .........           .......... ....      ....   .............  ..........    ....      ... ............. ...  ...........    ....      ...    ",
"  .............................................................             ..............            ..............              ............................................................                           ....   ....          ....  .... ....     .... ....          ...........  ....    ....    ............. ............  ......     ... ............. ... .............  ......     ...    ",
"  .............................................................            ..............              ..............             ............................................................              .................   ....          ....  ....  ....   ....  ....          ...           ....  ....               ... ...      ...  .......    ... ...           ... ...       ...  .......    ...    ",
"  .............................................................           ..............                ..............            ............................................................              ................    ....          ....  ....  ....   ....  ....          ...            ........                ... ...      ...  ... ...    ... ...           ... ...       ...  ... ...    ...    ",
"  .............................................................          ..............                  ..............            ...........................................................              ................    ....          ....  ....   .... ....   ....          ..........      .......      ............. ...      ...  ...  ...   ... ............  ... ...       ...  ...  ...   ...    ",
"  ............................................................          ..............                    ..............            .........................................................               ....        ....    ....          ....  ....   .... ....   ....          ..........      .......      ............. ........ ...  ...   ...  ... ............  ... ...       ...  ...   ...  ...    ",
"  ............................................................         ..............                      ..............            ........................................................               ....         ....   ....          ....  ....    .......    ....          ...            .... ....     ...           ........ ...  ...    ... ...          ...  ... ...       ...  ...    ... ...    ",
"  ...........................................................         ..............                        ..............            ......................................................                ....         ....   ..................  ....    .......    ....          ...           ....   ....    ...           ...      ...  ...    .......          ...  ... ...       ...  ...    .......    ",
"  ..........................................................         ..............                          .............             ....................................................                 ....          ....   ................   ....     .....     ....          ...........  ....     ....   ...           ...      ...  ...     ...... ............  ... .............  ...     ......    ",
"  ........................................................           .............                            .............               ...............................................                   ....          ....    ..............    ....     .....     ....           .......... ....       ....  ...           ...      ...  ...      ....  ............  ...  ...........   ...      ....     ",
"                                                                                                                                                                                                                                                                                                                                                                                                                ",
"                                                                                                                                                                                                                                                                                                                                                                                                                ",
"                                                                                                                                                                                                                                                                                                                                                                                                                "};