/* XPM */
static char * Sans titre_xpm[] = {
"436 56 2 1",
" 	g None",
".	g #000000",
"...................................................................                                                                       .....................................................                                                                                                                                                                                                                                                     ",
"...................................................................                                                                     .......................................................                                                                                                                                                                                                                                                     ",
"...................................................................                                                                   .........................................................                                                                                                                                                                                                                                                     ",
"...................................................................                                                                  ..........................................................                                                                                                                                                                                                                                                     ",
"...................................................................                                                                 ...........................................................                                                                                                                                                                                                                                                     ",
"...................................................................                                                                ............................................................                                                                                                                                                                                                                                                     ",
"...................................................................                                                                ............................................................                                                                                                                                                                                                                                                     ",
"...................................................................                                                               .............................................................                                                                                                                                                                                                                                                     ",
"...................................................................                                                               .............................................................                                                                                                                                                                                                                                                     ",
"...................................................................                                                              ..............................................................                                                                                                                                                                                                                                                     ",
"...................................................................                                                              ..............................................................                                                                                                                                                                                                                                                     ",
"...................................................................                                                              ..............................................................                                                                                                                                                                                                                                                     ",
"...................................................................                                                              ..............................................................                                                                                                                                                                                                                                                     ",
"................                                                                                                                 ..................                                                                                                                                                                                                                                                                                                 ",
"................                                                                                                                 .................                                                                                                                                                                                                                                                                                                  ",
"................                                                                                                                 ................                                                                                                                                                                                                                                                                                                   ",
"................                                                                                                                 ................                                                                                                                                                                                                                                                                                                   ",
"................                                                                                                                 ................                                                           .............   ....   ................. ................   ....              .............    ....         ....                                                                                                                        ",
"................                                                                                                                 ................                                                           ..............  ....  .................. .................  ....             ...............   ....         ....                                                                                                                        ",
"................                                                                                                                 .................                                                          ............... ....  .................. .................  ....            .................  ....         ....                                                                                                                        ",
"................                                                                                                                 ..................                                                                    .... ....  ....                            ....  ....            ....         ....  ....         ....                                                                                                                        ",
"..............................................................           .............                         .............     ............................................................                          .... ....  ....                            ....  ....            ....         ....  ....         ....           ..........    ....      ... ..........                                                                       ",
"................................................................          .............                       .............      ..............................................................                        .... ....  ....                            ....  ....            ....         ....  ....         ....          ............  ......     ... ...........                                                                      ",
".................................................................          .............                     .............       ...............................................................            ....       .... ....  ................   .................  ....            ....         ....  .................          ...      ...  .......    ...         ...                                                                      ",
"..................................................................          .............                   .............        ................................................................           ....       .... ....  .................  .................  ....            ...........  ....   ...............           ...      ...  ... ...    ...         ...                                                                      ",
"..................................................................           .............                 .............         ................................................................           ....       .... ....   ................  ................   ....            ...........  ....    ..............           ...      ...  ...  ...   ... ...     ...                                                                      ",
"...................................................................           .............               ..............         .................................................................          ....       .... ....               ....  ....               ....            ...........  ....         ....                ........ ...  ...   ...  ... ...     ...                                                                      ",
"...................................................................            .............             ..............          .................................................................          ....       .... ....               ....  ....               ....            ....         ....         ....                ........ ...  ...    ... ... ...     ...                                                                      ",
"...................................................................             .............            .............           .................................................................          ............... ....   ................  ....               ..............  ....         ....         ....                ...      ...  ...    ....... ...     ...                                                                      ",
" ..................................................................              .............          .............            .................................................................          ..............  ....   ................  ....               ..............  ....         ....         ....                ...      ...  ...     ...... ...........                                                                      ",
" ..................................................................               .............        .............             .................................................................          .............   ....   ...............   ....                .............  ....         ....         ....                ...      ...  ...      ....  ..........                                                                       ",
"  .................................................................               ..............      .............              .................................................................                                                                                                                                                                                                                                                  ",
"   ................................................................                ..............    .............               .................................................................                                                                                                                                                                                                                                                  ",
"     ..............................................................                 ..............  .............                .................................................................                                                                                                                                                                                                                                                  ",
"                                                 ..................                  ...........................                 ..................                             ..................                                                                                                                                                                                                                                                  ",
"                                                  .................                   .........................                  .................                               .................                                                                                                                                                                                                                                                  ",
"                                                   ................                    ........................                  ................                                 ................                                                                                                                                                                                                                                                  ",
"                                                   ................                     ......................                   ................                                 ................                                                                                                                                                                                                                                                  ",
"                                                   ................                      ....................                    ................                                 ................                                                                                                                                                                                                                                                  ",
"                                                   ................                     ......................                   ................                                 ................                                                                                                                                                                                                                                                  ",
"                                                   ................                    ........................                  ................                                 ................                                                                                                                                                                                                                                                  ",
"                                                  .................                   .........................                  .................                               .................                                                                                                                                                                                                                                                  ",
"                                                 ..................                  ...........................                 ..................                             ..................          ................      ..............      ....           ....             .............  .....          .....  ................     .............      ....        ....   ................. ....    ..............      ....        ....",
"  .................................................................                 ..............  .............                .................................................................          .................    ................    ......         ......           ..............   .....        .....   .................   ...............    ......       ....  .................. ....   ................    ......       ....",
"  .................................................................                ..............    .............               .................................................................          .................   ..................  ........       ........          ..............    .....      .....    .................  .................  ........      ....  .................. ....  ..................  ........      ....",
"  .................................................................               ..............      .............              .................................................................                       ....   ....          ....  ........       ........          ....               .....    .....                  ....  ....         ....  .........     ....  ....               ....  ....          ....  .........     ....",
"  .................................................................               .............        .............             .................................................................                       ....   ....          ....  .........     .........          ....                .....  .....                   ....  ....         ....  .... ....     ....  ....               ....  ....          ....  .... ....     ....",
"  .................................................................              .............          .............             ................................................................                       ....   ....          ....  .... ....     .... ....          ....                 ..........                    ....  ....         ....  ....  ....    ....  ....               ....  ....          ....  ....  ....    ....",
"  .................................................................             .............            .............            ................................................................          .................   ....          ....  ....  ....   ....  ....          ..............        .........       .................  ....         ....  ....   ....   ....  ................   ....  ....          ....  ....   ....   ....",
"  .................................................................            .............             ..............            ...............................................................          ................    ....          ....  ....  ....   ....  ....          ..............        .........       .................  ...........  ....  ....   .....  ....  .................  ....  ....          ....  ....   .....  ....",
"  .................................................................           .............               ..............           ...............................................................          ................    ....          ....  ....   .... ....   ....          ..............       ..........       ................   ...........  ....  ....    ....  ....   ................  ....  ....          ....  ....    ....  ....",
"  ................................................................           .............                 .............            .............................................................           ....        ....    ....          ....  ....   .... ....   ....          ....                .....  .....      ....               ...........  ....  ....     .... ....               ....  ....  ....          ....  ....     .... ....",
"  ................................................................          .............                   .............            ............................................................           ....         ....   ....          ....  ....    .......    ....          ....               .....    .....     ....               ....         ....  ....      ........               ....  ....  ....          ....  ....      ........",
"  ...............................................................          .............                     .............            ..........................................................            ....         ....   ..................  ....    .......    ....          ..............    .....      .....    ....               ....         ....  ....      ........   ................  ....  ..................  ....      ........",
"  ..............................................................          .............                       .............             .......................................................             ....          ....   ................   ....     .....     ....          ..............   .....        .....   ....               ....         ....  ....       ......    ................  ....   ................   ....       ...... ",
"  ............................................................           .............                         .............              ...................................................               ....          ....    ..............    ....     .....     ....           .............  .....          .....  ....               ....         ....  ....        ....     ...............   ....    ..............    ....        ....  "};
