/* XPM */
static char * 9bitRPR_xpm[] = {
"160 96 2 1",
" 	c #FFFFFF",
".	c #000000",
"                                                                                                                                                                ",
"           .         . .       .  .        .       ..     . ....       .          .        .                                                                  . ",
"           .         . .       .  .      .....    .  .   .  .  ..      .         .          .        .  .  .      .                                          .  ",
"           .         . .      ......    .     .    ..   .   .          .        .            .        . . .       .                                         .   ",
"           .                   .  .     .              .    ....  .             .            .         ...        .                                        .    ",
"           .                   .  .      .....        .     ..... .             .            .       .......   .......             ......                 .     ",
"           .                   .  .           .      .      .  ....             .            .         ...        .                                      .      ",
"                              ......    .     .     .   ..  .   ...             .            .        . . .       .                                     .       ",
"                               .  .      .....     .   .  . .  ...               .          .        .  .  .      .      .                             .        ",
"           .                   .  .        .      .     ..   ......               .        .                             .                  .         .         ",
"                                                                                                                        .                                       ",
"                                                                                                                                                                ",
"                                                                                                                                                                ",
"                                                                                                                                                                ",
"                                                                                                                                                                ",
"                                                                                                                                                                ",
"                                                                                                                                                                ",
" ....       .        ....      ....         .     ......     ....     ......     ....      ....                                                         ....    ",
".    .     ..       .    .    .    .       ..     .         .    .         .    .    .    .    .                            .                .         .    .   ",
".    .      .       .    .    .    .      . .     .         .             .     .    .    .    .                           .                  .        .    .   ",
".    .      .            .         .      . .     .....     .....         .     .    .    .    .     .         .          .        .....       .            .   ",
".    .      .           .       ...      .  .          .    .    .       .       ....     .    .                         .                      .          .    ",
".    .      .          .           .    .   .          .    .    .       .      .    .     .....                          .        .....       .          .     ",
".    .      .         .       .    .    ......         .    .    .      .       .    .         .                           .                  .           .     ",
".    .      .        .        .    .        .     .    .    .    .      .       .    .    .    .                            .                .                  ",
" ....       .       ......     ....         .      ....      ....       .        ....      ....      .         .                                          .     ",
"                                                                                                               .                                                ",
"                                                                                                              .                                                 ",
"                                                                                                                                                                ",
"                                                                                                                                                                ",
"                                                                                                                                                                ",
"                                                                                                                                                                ",
"                                                                                                                                                                ",
"  .....      .      ......      ...     .....     .......   .......     ...     .     .   .               .   .    .    .         .       . .     .     ...     ",
" .     .     .      .     .    .   .    .    .    .         .          .   .    .     .   .               .   .   .     .         ..     .. ..    .    .   .    ",
".  ...  .   . .     .     .   .     .   .     .   .         .         .     .   .     .   .               .   .  .      .         ..     .. . .   .   .     .   ",
". .   . .   . .     .     .   .         .     .   .         .         .         .     .   .               .   . .       .         . .   . . . .   .   .     .   ",
". .   . .  .   .    ......    .         .     .   .....     .....     .   ...   .......   .               .   ..        .         . .   . . .  .  .   .     .   ",
".  .... .  .   .    .     .   .         .     .   .         .         .     .   .     .   .         .     .   . .       .         .  . .  . .   . .   .     .   ",
".     . .  .....    .     .   .     .   .     .   .         .         .     .   .     .   .         .     .   .  .      .         .  . .  . .   . .   .     .   ",
" .     .  .     .   .     .    .   .    .    .    .         .          .   .    .     .   .          .   .    .   .     .         .   .   . .    ..    .   .    ",
"  ....    .     .   ......      ...     .....     .......   .           ...     .     .   .           ...     .    .    .......   .   .   . .     .     ...     ",
"                                                                                                                                                                ",
"                                                                                                                                                                ",
"                                                                                                                                                                ",
"                                                                                                                                                                ",
"                                                                                                                                                                ",
"                                                                                                                                                                ",
"                                                                                                                                                                ",
"......      ...     ......     .....    .......   .     .   .     .   .   .   . .     .   .       . .......   ....      .          ....       .                 ",
".     .    .   .    .     .   .     .      .      .     .   .     .   .   .   . .     .    .     .        .   .          .            .      . .                ",
".     .   .     .   .     .   .     .      .      .     .   .     .   .   .   .  .   .      .   .        .    .           .           .     .   .               ",
".     .   .     .   .     .   .            .      .     .    .   .     . . . .    . .        . .        .     .            .          .                         ",
"......    .     .   ......     .....       .      .     .    .   .     . . . .     .          .        .      .             .         .                         ",
".         .     .   .    .          .      .      .     .     . .      . . . .    . .         .       .       .              .        .                         ",
".         .   . .   .     .   .     .      .      .     .     . .       .   .    .   .        .      .        .               .       .                         ",
".          .   .    .     .   .     .      .       .   .       .        .   .   .     .       .     .         .                .      .                         ",
".           ... .   .     .    .....       .        ...        .        .   .   .     .       .     .......   ....              .  ....               .......   ",
"                                                                                                                                                                ",
"                                                                                                                                                                ",
"                                                                                                                                                                ",
"                                                                                                                                                                ",
"                                                                                                                                                                ",
"                                                                                                                                                                ",
"                                                                                                                                                                ",
"   .                .                         .                ..               .          .           .      .         ..                                      ",
"   .                .                         .               .                 .                             .          .                                      ",
"  . .      ....     . ...       ...       ... .     ...       .        .....    . ..       .           .      .   .      .         .. ..    . ...       ...     ",
"  . .     .    .    ..   .     .   .     .   ..    .   .    .....     .    .    ..  .      .           .      .  .       .        .  .  .   ..   .     .   .    ",
" .   .         .    .     .   .         .     .   .     .     .       .    .    .    .     .           .      . .        .        .  .  .   .    .    .     .   ",
" .   .     .....    .     .   .         .     .   .......     .        .....    .    .     .           .      ..         .        .  .  .   .    .    .     .   ",
" .....    .    .    .     .   .         .     .   .           .            .    .    .     .           .      . .        .        .  .  .   .    .    .     .   ",
".     .   .    .    ..   .     .   .     .   ..    .    .     .       .    .    .    .     .           .      .  .       .        .  .  .   .    .     .   .    ",
".     .    ....       ...       ...       ... .     ....      .        .  .     .    .     .        .  .      .   .      .        .  .  .   .    .      ...     ",
"                                                                        ..                           ..                                                         ",
"                                                                                                                                                                ",
"                                                                                                                                                                ",
"                                                                                                                                                                ",
"                                                                                                                                                                ",
"                                                                                                                                                                ",
"                                                                                                                                                                ",
"                                          .                                                                      .       .         .                            ",
"                                          .                                                                     .        .          .                           ",
" ....      .....    . ..       ....     .....     .    .    .     .   .   .   . .     .   .    .    .....       .        .          .                           ",
".    .    .    .    ..  .     .    .      .       .    .    .     .   .   .   .  .   .    .    .        .      .         .           .       ..  .              ",
".    .    .    .    .   .     .           .       .    .     .   .    .  . .  .   . .      .  .        .      .          .            .     .  ..               ",
".    .    .    .    .          ....       .       .    .     .   .     . . . .     .       .  .       .        .         .           .                          ",
".....      .....    .              .      .       .    .      . .      . . . .    . .       ..       .          .        .          .                           ",
".              .    .         .    .      .       .    .      . .       .   .    .   .       .      .           .        .          .                           ",
".              .    .          ....        ..      ....        .        .   .   .     .   .  .      .....        .       .         .                            ",
".              .                                                                           ..                                                                   ",
"                                                                                                                                                                ",
"                                                                                                                                                                ",
"                                                                                                                                                                ",
"                                                                                                                                                                ",
"                                                                                                                                                                "};
