/* XPM */
static char * 5x6 logo_xpm[] = {
"174 16 2 1",
" 	g None",
".	g #ffffff",
"      ....         ....                                                                                                                                                       ",
"    ...   ...   ...   ...                                                                                                                                                     ",
"   .        .. ..        .                      .       ..                                                                                                                    ",
"  .          ..           .          ..         .       ..  ..              ..                     .                                                                          ",
" .            ..           .        ...         .       ..             ..                          .                  .                                              .        ",
" .             ..          .        . .      .. .    .. ..  .     ...  ...     .         ...       .   . ..     ..   ...    ..  .   .   . ..   ..     ...      ..   ....  ... ",
" .              ..         ..      .. ..   ... ..   .. ...  .   ..  .  ..   .. ..   .  ... ..      .   ......  .. .  ..   .... ..   ..  ....... ..   .. ..  ... ..   ..  .. . ",
"..               ..        ..      .   .   ..   .  ..   ..  .   .      ..   ..  .   .  .    .      .   .   ..  .      .   ..   ..   .   .   ..   .  ..   .  ..   .   .   ..   ",
"..        ..      .        ..      .   .   .    .  ..   ..  .  ..      ..   ..  .  ..  ..   .      .   .   ..  ..     .   ..   ..   .   .   ..   .  ..   .. ..   .   .   ...  ",
" .         ..              ..     .......  .    .  ..   ..  .  ..      ..   ..  .. .   ......      .   .   ..   ...   .   ..   ..   .   .   ..   .  ......  ..   .   .     ...",
" .          ..             .      ..   ..  .    .  ..   ..  .  ..      ..   ..   . .   .           .   .   ..     .   .   ..   ..   .   .   ..   .  ..      ..   .   .      ..",
" .           ..            .      .     .. ..  ..   .   ..  .   ..     ..   ..   ...   ..   .      .   .   ..     .   .   ..    .  ..   .   ..   .  ..   .  ..   .   .      ..",
"  .           ..          .      ..     ..  .....   ......  .    ....   ..  ..   ..     .....      .   .    .  ....   ... ..    ......  .   ..   .   .....  ..   .   ... .... ",
"  ..        .. ..        .                                                                                                                                                    ",
"    ...   ...   ...   ...                                                                                                                                                     ",
"      ....         ....                                                                                                                                                       "};
