/* XPM */
static char * 5x6 logo_xpm[] = {
"49 32 2 1",
" 	g None",
".	g #ffffff",
"           .....                 .....           ",
"        ...........           ...........        ",
"      .....     .....       .....     .....      ",
"    ....           ...     ...           ...     ",
"   ...              ...   ...             ...    ",
"   ..                ...  .                 ..   ",
"  ..                  ...                    ..  ",
" ...                   ...                   ... ",
" ..                     ...                   .. ",
"..                       ...                  .. ",
"..                        ...                  ..",
"..                         ...                 ..",
"..                          ...                ..",
"..               .           ...               ..",
"..               ..           ..               ..",
"..               ...                           ..",
"..                 ..                          ..",
"..                 ...                         ..",
"..                  ...                       .. ",
" ..                  ...                      .. ",
" ...                  ...                    ... ",
"  ..                   ...                   ..  ",
"  ...                 . ...                 ..   ",
"   ...              ...   ...             ...    ",
"    ....           ...     ...           ...     ",
"      .....     .....       .....     .....      ",
"       ............           ...........        ",
"           .....                 .....           ",
"                                                 ",
"                                                 ",
"                                                 ",
"                                                 "};

