/* XPM */
static char * adictive_inst_xpm[] = {
"303 32 3 1",
" 	c None",
".	c #FFFFFF",
"           .....                 .....                                                                                                                                                                                                                                                                         ",
"        ...........           ...........                                                                                                                                                                                                                                                                      ",
"      .....     .....       .....     .....                                                                                                                                                                                                                                                                    ",
"    ....           ...     ...           ...                                                                                                                                                                                                                                                                   ",
"   ...              ...   ...             ...                                      ..             ..     .                           .                                                                                                                                                                         ",
"   ..                ...  .                 ..                 ...                 ..             ..     ..                          ..                                     ...                                                                                                                                ",
"  ..                  ...                    ..                ....                ..             ..     ..                  .       ..                                     ...                               .                                                                                  .             ",
" ...                   ...                   ...              .....                ..             ..                        ..                                              ...                              ..                                                                                 ..             ",
" ..                     ...                   ..              .....                ..             ..                        ..                                              ...                              ..                                                                                 ..             ",
"..                       ...                  ..              .. ...          ...  ..        ...  ..     .        .....    ......    ..   ..       ..      ....             ...     .   ...        ....     ......    .  ...   .       .          ...     ...         ....        .   ...      ......    ....  ",
"..                        ...                  ..            ...  ..        .........      .........     ..     ........  .......    ..   ..       ..    ........           ...    .. .......     .......  .......   .......  ...      ..    .. ....... ......      ........     .. .......   .......   .......",
"..                         ...                 ..            ...  ...      ....  ....     ....  ....     ..    ....   ..    ...      ..   ...     ...   ....  ....          ...    .....  ...    ...   .     ...     .......  ...      ..    .....  .....   ...    ....  ....    .....  ...     ...    ...   . ",
"..                          ...                ..            ..   ...      ..      ..     ..      ..     ..    ...          ..       ..   ...     ..    ..     ...          ...    ...     ...   ..          ..      ...      ...      ..    ...     ...     ..    ..     ...    ...     ...    ..     ..      ",
"..               .           ...               ..           ...    ..     ...      ..    ...      ..     ..   ...           ..       ..    ..     ..   ...      ..          ...    ...     ...   ..          ..      ...      ...      ..    ...     ..      ..   ...      ..    ...     ...    ..     ..      ",
"..               ..           ..               ..           ..     ...    ...      ..    ...      ..     ..   ...           ..       ..    ...    ..   ...      ...         ...    ...     ...   ....        ..      ...      ...      ..    ...     ..      ..   ...      ...   ...     ...    ..     ....    ",
"..               ...                           ..           ..     ...    ..       ..    ..       ..     ..   ...           ..       ..     ..   ..    ............         ...    ...     ...    .....      ..      ...      ...      ..    ...     ..      ..   ............   ...     ...    ..      .....  ",
"..                 ..                          ..          ............   ...      ..    ...      ..     ..   ...           ..       ..     ..   ..    ...........          ...    ...     ...      .....    ..      ...      ...      ..    ...     ..      ..   ...........    ...     ...    ..        .....",
"..                 ...                         ..          ............   ...      ..    ...      ..     ..   ...           ..       ..     ... ...    ...                  ...    ...     ...        ...    ..      ...      ...      ..    ...     ..      ..   ...            ...     ...    ..          ...",
"..                  ...                       ..          ...       ...   ...      ..    ...      ..     ..   ...           ..       ..      .. ..     ...                  ...    ...     ...         ..    ..      ...      ...      ..    ...     ..      ..   ...            ...     ...    ..           ..",
" ..                  ...                      ..          ...        ...   ..      ..     ..      ..     ..    ..           ...      ..      .. ..      ..                  ...    ...     ...         ..    ..      ...       ..     ...    ...     ..      ..    ..            ...     ...    ..           ..",
" ...                  ...                    ...          ..         ...   ...   ....     ...   ....     ..    ....    .    ...      ..      .....      ....    ..          ...    ...     ...   ..   ...    ...     ...       ...   ....    ...     ..      ..    ....    ..    ...     ...    ...    ..   ...",
"  ..                   ...                   ..          ...          ..    ..........     ..........    ..     .........    ....    ..       ...        .........          ...    ...     ...   .......      ....   ...       ....... ..    ...     ..      ..     .........    ...     ...     ....  ....... ",
"  ...                 . ...                 ..           ..           ..     ....   .       ....   .     ..       .....       ...    ..       ...          .....             .      .       ..    .....        ...    ..         ....  ..     .      ..      ..       .....       .       ..      ...   .....  ",
"   ...              ...   ...             ...                                                                                                                                                                                                                                                                  ",
"    ....           ...     ...           ...                                                                                                                                                                                                                                                                   ",
"      .....     .....       .....     .....                                                                                                                                                                                                                                                                    ",
"       ............           ...........                                                                                                                                                                                                                                                                      ",
"           .....                 .....                                                                                                                                                                                                                                                                         ",
"                                                                                                                                                                                                                                                                                                               ",
"                                                                                                                                                                                                                                                                                                               ",
"                                                                                                                                                                                                                                                                                                               ",
"                                                                                                                                                                                                                                                                                                               "};
