/* XPM */
static char * 5x6 logo_xpm[] = {
"246 24 2 1",
" 	g None",
".	g #ffffff",
"                          ..             ..     .                           .                                                                                                                                                                         ",
"      ...                 ..             ..     ..                          ..                                     ...                                                                                                                                ",
"      ....                ..             ..     ..                  .       ..                                     ...                               .                                                                                  .             ",
"     .....                ..             ..                        ..                                              ...                              ..                                                                                 ..             ",
"     .....                ..             ..                        ..                                              ...                              ..                                                                                 ..             ",
"     .. ...          ...  ..        ...  ..     .        .....    ......    ..   ..       ..      ....             ...     .   ...        ....     ......    .  ...   .       .          ...     ...         ....        .   ...      ......    ....  ",
"    ...  ..        .........      .........     ..     ........  .......    ..   ..       ..    ........           ...    .. .......     .......  .......   .......  ...      ..    .. ....... ......      ........     .. .......   .......   .......",
"    ...  ...      ....  ....     ....  ....     ..    ....   ..    ...      ..   ...     ...   ....  ....          ...    .....  ...    ...   .     ...     .......  ...      ..    .....  .....   ...    ....  ....    .....  ...     ...    ...   . ",
"    ..   ...      ..      ..     ..      ..     ..    ...          ..       ..   ...     ..    ..     ...          ...    ...     ...   ..          ..      ...      ...      ..    ...     ...     ..    ..     ...    ...     ...    ..     ..      ",
"   ...    ..     ...      ..    ...      ..     ..   ...           ..       ..    ..     ..   ...      ..          ...    ...     ...   ..          ..      ...      ...      ..    ...     ..      ..   ...      ..    ...     ...    ..     ..      ",
"   ..     ...    ...      ..    ...      ..     ..   ...           ..       ..    ...    ..   ...      ...         ...    ...     ...   ....        ..      ...      ...      ..    ...     ..      ..   ...      ...   ...     ...    ..     ....    ",
"   ..     ...    ..       ..    ..       ..     ..   ...           ..       ..     ..   ..    ............         ...    ...     ...    .....      ..      ...      ...      ..    ...     ..      ..   ............   ...     ...    ..      .....  ",
"  ............   ...      ..    ...      ..     ..   ...           ..       ..     ..   ..    ...........          ...    ...     ...      .....    ..      ...      ...      ..    ...     ..      ..   ...........    ...     ...    ..        .....",
"  ............   ...      ..    ...      ..     ..   ...           ..       ..     ... ...    ...                  ...    ...     ...        ...    ..      ...      ...      ..    ...     ..      ..   ...            ...     ...    ..          ...",
" ...       ...   ...      ..    ...      ..     ..   ...           ..       ..      .. ..     ...                  ...    ...     ...         ..    ..      ...      ...      ..    ...     ..      ..   ...            ...     ...    ..           ..",
" ...        ...   ..      ..     ..      ..     ..    ..           ...      ..      .. ..      ..                  ...    ...     ...         ..    ..      ...       ..     ...    ...     ..      ..    ..            ...     ...    ..           ..",
" ..         ...   ...   ....     ...   ....     ..    ....    .    ...      ..      .....      ....    ..          ...    ...     ...   ..   ...    ...     ...       ...   ....    ...     ..      ..    ....    ..    ...     ...    ...    ..   ...",
"...          ..    ..........     ..........    ..     .........    ....    ..       ...        .........          ...    ...     ...   .......      ....   ...       ....... ..    ...     ..      ..     .........    ...     ...     ....  ....... ",
"..           ..     ....   .       ....   .     ..       .....       ...    ..       ...          .....             .      .       ..    .....        ...    ..         ....  ..     .      ..      ..       .....       .       ..      ...   .....  ",
"                                                                                                                                                                                                                                                      ",
"                                                                                                                                                                                                                                                      ",
"                                                                                                                                                                                                                                                      ",
"                                                                                                                                                                                                                                                      ",
"                                                                                                                                                                                                                                                      "};