/* XPM */
static char * F:\Projets\bandmaster\font_PIX_xpm[] = {
"192 96 3 1",
" 	c #000000",
".	c #FFFFFF",
"+	c #555555",
"                                                                                                                                                                                                ",
"                                                                                                                                                                                                ",
"                                                                                                                                                                                                ",
"                                                                                                                                                                                                ",
"                                                                                                                                                                                                ",
"                                                                                                                                                                                                ",
"                                                                                                                                                                                                ",
"                                                                                                                                                                                                ",
"                                                                                                                                                                                                ",
"                                                                                                                                                                                                ",
"                                                                                                                                                                                                ",
"                                                                                                                                                                                                ",
"                                                                                                                                                                                                ",
"                                                                                                                                                                                                ",
"                                                                                                                      .                                .    .           .    .                  ",
"                                                                                                                                    .  .   .  .      .  .  .  .       .  .  .  .                ",
"                                                                                                                      . . .          .  . .  .       . ...... .       . ...... .                ",
"                                                                                                                   .  .               .     .        ... .. ...       ... .. ...                ",
"                                                                                                                       .. ..       ..         ..     ..........        .. .. ..                 ",
"                                                                                                                 .   . .. . .         .     .         ........         ........                 ",
"                                                                                                                   ........          .  . .  .         .    .          . .  . .                 ",
"                                                                                                                  .......... . .    .  .   .  .         .  .          ..      ..                ",
"                                                                                                                                                                                                ",
"                                                                                                                                                                                                ",
"                                                                                                                                                                                                ",
"                                                                                                                                                                                                ",
"                                                                                                                                                                                                ",
"                                                                                                                                                                                                ",
"                                                                                                                                                                                                ",
"                                                                                                                                                                                                ",
"                                                                                                                                                                                                ",
"                                                                                                                                                                                                ",
"                                                                                                                                                                                                ",
"                                                                                                                                                                                                ",
"                                                                                                                                                                                                ",
"                                                                                                                                                                                                ",
"                                                                                                                                                                                                ",
"  +++++++     ++++++     ++++++++    ++++++++    ++++ ++++    ++++++++    ++++++++   +++++++++    +++++++     +++++++      ++++                                                                 ",
" ++.....++   ++....+     +......++   +......++   +..+ +..+   ++......+   ++......+   +.......+   ++.....++   ++.....++     +..+         .  .      .......        .                              ",
" +.......+   +.....+     +.......+   +.......+   +..+ +..+   +.......+   +.......+   +.......+   +.......+   +.......+    ++..+          ..      ..     ..      ...                             ",
" +..+++..+   +..+..+     ++++++..+   ++++++..+   +..+++..+   +..++++++   +..++++++   +++++...+   +..+++..+   +..+++..+    +...+       . .... .   .       .      ...                             ",
" +..+.+..+   ++++..+     +.......+     +.....+   +.......+   +.......+   +......++     ++...++   +.......+   +.......+   ++...+       .. .. ..   . .. .. .      ...                             ",
" +..+.+..+      +..+     +.......+     +.....+   ++......+   +.......+   +.......+    ++...++    +.......+   ++......+   +...++       ........   . +. +. .   .........                          ",
" +..+++..+      +..+     +..++++++   ++++++..+    +++++..+   ++++++..+   +..+++..+   ++...++     +..+++..+   ++++++..+   +...+        . .... .   .       .  ...........                         ",
" +.......+      +..+     +.......+   +.......+        +..+   +.......+   +.......+   +...++      +.......+   +.......+   +..++        .  ..  .   ..     ..  ...........                         ",
" ++.....++      +..+     ++......+   +......++        +..+   +......++   ++.....++   +..++       ++.....++   +......++   +..+         ..    ..    .......   ...........                         ",
"  +++++++       ++++      ++++++++   ++++++++         ++++   ++++++++     +++++++    ++++         +++++++    ++++++++    ++++                                                                   ",
"                                                                                                                                                                                                ",
"                                                                                                                                                                                                ",
"  ........    ........   .........    .........  .........    .........   .........   .........  ....  ....  ..........        ....  ....  ....  ....         ........    ........    ........  ",
" ..++++++..  ..++++++..  .+++++++..  ..+++++++.  .+++++++..  ..+++++++.  ..+++++++.  ..+++++++.  .++.  .++.  .++++++++.        .++.  .++.  .++.  .++.        ..++++++..  ..++++++..  ..++++++.. ",
" .++....++.  .++++++++.  .++++++++.  .++++++++.  .++++++++.  .++++++++.  .++++++++.  .++++++++.  .++.  .++.  .++++++++.        .++.  .++. ..++.  .++.        .++++++++.  .++++++++.  .++++++++. ",
" .+.++++++.  .++....++.  .++...+++.  .+++......  .++...+++.  .++.......  .++.......  .++.......  .++....++.  ....++....        .++.  .++...++..  .++.        .++.++.++.  .+++..+++.  .++....++. ",
" .+.++++++.  .++++++++.  .+++++++..  .++..       .++. ..++.  .+++++.     .+++++.     .++.+++++.  .++++++++.     .++.     ....  .++.  .+++++++.   .++.        .++.++.++.  .++....++.  .++.  .++. ",
" .+.+..+++.  .++++++++.  .++++++++.  .++..       .++. ..++.  .+++++.     .+++++.     .++.+++++.  .++++++++.     .++.     .++....++.  .+++++++.   .++.        .++....++.  .++.  .++.  .++.  .++. ",
" .+.++.+++.  .++....++.  .++....++.  .+++......  .++...+++.  .++.......  .++....     .++....++.  .++....++.  ....++....  .+++..+++.  .++...++..  .++.......  .++.  .++.  .++.  .++.  .++....++. ",
" .++++++++.  .++.  .++.  .++++++++.  .++++++++.  .++++++++.  .++++++++.  .++.        .++++++++.  .++.  .++.  .++++++++.  .++++++++.  .++. ..++.  .++++++++.  .++.  .++.  .++.  .++.  .++++++++. ",
" ..++++++..  .++.  .++.  .+++++++..  ..+++++++.  .+++++++..  ..+++++++.  .++.        ..+++++++.  .++.  .++.  .++++++++.  ..++++++..  .++.  .++.  .++++++++.  .++.  .++.  .++.  .++.  ..++++++.. ",
"  ........   ....  ....  .........    .........  .........    .........  ....         .........  ....  ....  ..........   ........   ....  ....  ..........  ....  ....  ....  ....   ........  ",
"                                                                                                                                                                                                ",
"                                                                                                                                                                                                ",
" .........    ........   .........    .........  ..........  ....  ....  ....  ....  ....  ....  ....  ....  ....  ....  ..........       ....                ....                              ",
" .+++++++..  ..++++++..  .+++++++..  ..+++++++.  .++++++++.  .++.  .++.  .++.  .++.  .++.  .++.  .++.  .++.  .++.  .++.  .++++++++.       .++.    .......     .++.                              ",
" .++++++++.  .++++++++.  .++++++++.  .++++++++.  .++++++++.  .++.  .++.  .++.  .++.  .++.  .++.  .++....++.  .++....++.  .++++++++.       .+..   ..+++++..    ..+.                              ",
" .++....++.  .++....++.  .++....++.  .++.......  ....++....  .++.  .++.  .++.  .++.  .++.  .++.  .+++..+++.  .+++..+++.  .+++......       .+.    .+++++++.     .+.                              ",
" .++....++.  .++.  .++.  .++.+++++.  .++++++++.     .++.     .++.  .++.  .++.  .++.  .++....++.  ..++++++..  ..++++++..  ..+++++..        .+.    .+..+..+.     .+.                              ",
" .++.+++++.  .++.  .++.  .++.+++++.  .++++++++.     .++.     .++.  .++.  .++....++.  .++.++.++.  ..++++++..   ..++++..    ..+++++..       .+.    .+ .+ .+.     .+.                              ",
" .++.++++..  .++....++.  .++....++.  .......++.     .++.     .++....++.  .+++..+++.  .++.++.++.  .+++..+++.    ..++..    ......+++.       .+.    .+++++++.     .+.                              ",
" .++......   .+++++.++.  .++.  .++.  .++++++++.     .++.     .++++++++.  ..++++++..  .++++++++.  .++....++.     .++.     .++++++++.       .+..   ..+++++..    ..+.                              ",
" .++.        ..++++.++.  .++.  .++.  .+++++++..     .++.     .++++++++.   ..++++..   ..++++++..  .++.  .++.     .++.     .++++++++.       .++.    .......     .++.                              ",
" ....         .........  ....  ....  .........      ....     ..........    ......     ........   ....  ....     ....     ..........       ....                ....                              ",
"                                                                                                                                                                                                ",
"                                                                                                                                                                                                ",
"  ++++++++    ++++++++   +++++++++    +++++++++  +++++++++    +++++++++   +++++++++   +++++++++  ++++  ++++  ++++++++++        ++++  ++++  ++++  ++++         ++++++++    ++++++++    ++++++++  ",
" ++......++  ++......++  +.......++  ++.......+  +.......++  ++.......+  ++.......+  ++.......+  +..+  +..+  +........+        +..+  +..+  +..+  +..+        ++......++  ++......++  ++......++ ",
" +..++++..+  +........+  +........+  +........+  +........+  +........+  +........+  +........+  +..+  +..+  +........+        +..+  +..+ ++..+  +..+        +........+  +........+  +........+ ",
" +.+......+  +..++++..+  +..+++...+  +...++++++  +..+++...+  +..+++++++  +..+++++++  +..+++++++  +..++++..+  ++++..++++        +..+  +..+++..++  +..+        +..+..+..+  +...++...+  +..++++..+ ",
" +.+......+  +........+  +.......++  +..++       +..+ ++..+  +.....+     +.....+     +..+.....+  +........+     +..+     ++++  +..+  +.......+   +..+        +..+..+..+  +..++++..+  +..+  +..+ ",
" +.+.++...+  +........+  +........+  +..++       +..+ ++..+  +.....+     +.....+     +..+.....+  +........+     +..+     +..++++..+  +.......+   +..+        +..++++..+  +..+  +..+  +..+  +..+ ",
" +.+..+...+  +..++++..+  +..++++..+  +...++++++  +..+++...+  +..+++++++  +..++++     +..++++..+  +..++++..+  ++++..++++  +...++...+  +..+++..++  +..+++++++  +..+  +..+  +..+  +..+  +..++++..+ ",
" +........+  +..+  +..+  +........+  +........+  +........+  +........+  +..+        +........+  +..+  +..+  +........+  +........+  +..+ ++..+  +........+  +..+  +..+  +..+  +..+  +........+ ",
" ++......++  +..+  +..+  +.......++  ++.......+  +.......++  ++.......+  +..+        ++.......+  +..+  +..+  +........+  ++......++  +..+  +..+  +........+  +..+  +..+  +..+  +..+  ++......++ ",
"  ++++++++   ++++  ++++  +++++++++    +++++++++  +++++++++    +++++++++  ++++         +++++++++  ++++  ++++  ++++++++++   ++++++++   ++++  ++++  ++++++++++  ++++  ++++  ++++  ++++   ++++++++  ",
"                                                                                                                                                                                                ",
"                                                                                                                                                                                                ",
" +++++++++    ++++++++   +++++++++    +++++++++  ++++++++++  ++++  ++++  ++++  ++++  ++++  ++++  ++++  ++++  ++++  ++++  ++++++++++       ++++                ++++                              ",
" +.......++  ++......++  +.......++  ++.......+  +........+  +..+  +..+  +..+  +..+  +..+  +..+  +..+  +..+  +..+  +..+  +........+       +..+    +++++++     +..+                              ",
" +........+  +........+  +........+  +........+  +........+  +..+  +..+  +..+  +..+  +..+  +..+  +..++++..+  +..++++..+  +........+       +.++   ++.....++    ++.+                              ",
" +..++++..+  +..++++..+  +..++++..+  +..+++++++  ++++..++++  +..+  +..+  +..+  +..+  +..+  +..+  +...++...+  +...++...+  +...++++++       +.+    +.......+     +.+                              ",
" +..++++..+  +..+  +..+  +..+.....+  +........+     +..+     +..+  +..+  +..+  +..+  +..++++..+  ++......++  ++......++  ++.....++        +.+    +.++.++.+     +.+                              ",
" +..+.....+  +..+  +..+  +..+.....+  +........+     +..+     +..+  +..+  +..++++..+  +..+..+..+  ++......++   ++....++    ++.....++       +.+    +. +. +.+     +.+                              ",
" +..+....++  +..++++..+  +..++++..+  +++++++..+     +..+     +..++++..+  +...++...+  +..+..+..+  +...++...+    ++..++    ++++++...+       +.+    +.......+     +.+                              ",
" +..++++++   +.....+..+  +..+  +..+  +........+     +..+     +........+  ++......++  +........+  +..++++..+     +..+     +........+       +.++   ++.....++    ++.+                              ",
" +..+        ++....+..+  +..+  +..+  +.......++     +..+     +........+   ++....++   ++......++  +..+  +..+     +..+     +........+       +..+    +++++++     +..+                              ",
" ++++         +++++++++  ++++  ++++  +++++++++      ++++     ++++++++++    ++++++     ++++++++   ++++  ++++     ++++     ++++++++++       ++++                ++++                              ",
"                                                                                                                                                                                                "};
