/* XPM */
static char * PIXEL12X10_xpm[] = {
"176 48 2 1",
" 	c None",
".	c #000000",
"                                                                                                                                                                                ",
"  ......       ..      ......     ......        ...   ..........   ......   ..........   ......     ......                                                                      ",
" ........     ...     ........   ........      ....   ..........  ........  ..........  ........   ........                                                                     ",
"...    ...   ....    ...    ... ...    ...    .....   ..         ...    ..  ..     ..   ..    ..  ...    ...                                                                    ",
"..    ....  .....    ..      .. ..      ..   ... ..   ..         ..               ...   ..    ..  ..      ..                                                                    ",
"..   ..... ... ..           ...        ...  ...  ..   ........   .. .....         ..     ......   ..      ..                                                                    ",
"..  ... .. ..  ..         ....      .....  ...   ..   .........  .........       ...    ........  ...    ...                                                                    ",
".. ...  ..     ..       .....       .....  ..    ..          ... ...    ...      ..    ...    ...  .........                                                                    ",
".....   ..     ..      ....            ... ..........         .. ..      ..     ...    ..      ..   ..... ..                                                                    ",
"....    ..     ..     ...       ..      .. .......... ..      .. ..      ..     ..     ..      ..         ..                                                                    ",
"...    ...     ..    ...        ...    ...       ..   ...    ... ...    ...    ...     ...    ... ..     ...                                                                    ",
" ........   ........ ..........  ........        ..    ........   ........     ..       ........  .........                                                                     ",
"  ......    ........ ..........   ......         ..     ......     ......      ..        ......    .......                                                                      ",
"                                                                                                                                                                                ",
"                                                                                                                                                                                ",
"                                                                                                                                                                                ",
"                                                                                                                                                                                ",
"               ..     ........      ......  .......    .......... ..........    ......  ..      .. ......         ...... ..      .. ..         ..      .. ..      ..   ......   ",
"              ....    .........    ........ ........   .......... ..........   ........ ..      .. ......         ...... ..     ... ..         ...    ... ...     ..  ........  ",
"              ....    ..     ...  ...    .. ..    ...  ..         ..          ...    .. ..      ..   ..             ..   ..    ...  ..         ....  .... ....    .. ...    ... ",
"             ..  ..   ..      .. ...        ..     ... ..         ..         ...        ..      ..   ..             ..   ..   ...   ..         .......... .....   .. ..      .. ",
"             ..  ..   ..     ... ..         ..      .. ..         ..         ..         ..      ..   ..             ..   ..  ...    ..         .. .... .. .. ..   .. ..      .. ",
"             ..  ..   .........  ..         ..      .. ........   ........   ..   ..... ..........   ..             ..   ......     ..         ..  ..  .. .. ...  .. ..      .. ",
"            ..    ..  .........  ..         ..      .. ........   ........   ..   ..... ..........   ..             ..   ......     ..         ..  ..  .. ..  ... .. ..      .. ",
"            ........  ..     ... ..         ..      .. ..         ..         ..      .. ..      ..   ..             ..   ..  ...    ..         ..      .. ..   .. .. ..      .. ",
"            ........  ..      .. ...        ..     ... ..         ..         ...     .. ..      ..   ..       ..    ..   ..   ...   ..         ..      .. ..   ..... ..      .. ",
"           ..      .. ..     ...  ...    .. ..    ...  ..         ..          ...   ... ..      ..   ..       ...  ...   ..    ...  ..         ..      .. ..    .... ...    ... ",
"           ..      .. .........    ........ ........   .......... ..           .......  ..      .. ......      ......    ..     ... .......... ..      .. ..     ...  ........  ",
"           ..      .. ........      ......  .......    .......... ..            .....   ..      .. ......       ....     ..      .. .......... ..      .. ..      ..   ......   ",
"                                                                                                                                                                                ",
"                                                                                                                                                                                ",
"                                                                                                                                                                                ",
"                                                                                                                                                                                ",
"........     ......   ........     ......   .......... ..      .. ..      .. ..      .. ..      .. ..      .. ..........                                                        ",
".........   ........  .........   ........  .......... ..      .. ..      .. ..      .. ..      .. ..      .. ..........                                                        ",
"..     ... ...    ... ..     ... ...    ...     ..     ..      .. ..      .. ..      .. ...    ... ...    ...        ..                                                         ",
"..      .. ..      .. ..      .. ..      ..     ..     ..      .. ...    ... ..      ..  ...  ...   ..    ..        ...                                                         ",
"..      .. ..      .. ..      .. ...            ..     ..      ..  ..    ..  ...    ...   ......    ...  ...       ...                                                          ",
"..     ... ..      .. ..     ...  .......       ..     ..      ..  ..    ..   .. .. ..     ....      ..  ..       ...                                                           ",
".........  ..  ..  .. .........    .......      ..     ..      ..  ...  ...   .. .. ..     ....      ......      ...                                                            ",
"........   ..  ... .. ........          ...     ..     ..      ..   ..  ..    .. .. ..    ......      ....      ...                                                             ",
"..         ..   ..... ..    ...  ..      ..     ..     ..      ..   ..  ..    .. .. ..   ...  ...      ..      ...                                                              ",
"..         ...   ...  ..     ... ...    ...     ..     ...    ...   ......     ......   ...    ...     ..      ..                                                               ",
"..          ......... ..      ..  ........      ..      ........     ....      ......   ..      ..     ..     ..........                                                        ",
"..           ..... .. ..      ..   ......       ..       ......       ..       ..  ..   ..      ..     ..     ..........                                                        ",
"                                                                                                                                                                                ",
"                                                                                                                                                                                ",
"                                                                                                                                                                                "};
