/* XPM */
static char * lc_font_7seg[] = {
"160 128 2 1",
"   g #000000",
".  g #FFFFFF",
"                                                                                                                                                                ",
"                                                                                                                                                                ",
"                                                                                                                                                                ",
"                                                                                                                                                                ",
"                                                                                                                                                                ",
"                                                                                                                                                                ",
"                                                                                                                                                                ",
"                                                                                                                                                                ",
"                                                                                                                                                                ",
"                                                                                                                                                                ",
"                                                                                                                                                                ",
"                                                                                                                                                                ",
"                                                                                                                                                                ",
"                                                                                                                                                                ",
"                                                                                                                                                                ",
"                                                                                                                                                                ",
"                                                                                                                                                                ",
"                                                                                                                                                                ",
"                                                                                                                                                                ",
"                                                                                                                                                                ",
"                                                                                                                                                                ",
"                                                                                                                                                                ",
"                                                                                                                                                                ",
"                                                                                                                                                                ",
"                                                                                                                                                                ",
"                                                                                                                                                                ",
"                                                                                                                                                                ",
"                                                                                                                                                                ",
"                                                                                                                                                                ",
"                                                                                                                                                                ",
"                                                                                                                                                                ",
"                                                                                                                                                                ",
"                                                                                                                                                                ",
"                                                                                                                                                                ",
"                                                                                                                                                                ",
"                                  ...    ....... .......    ..                  ..........          ............                                                ",
"                                ..   ..  .       .          . ..                .        .          .    . . . .                                                ",
"                                .     .  .       .          .   ..              .        .          .    . . . .                                                ",
"                               .       . .       .          .     ..            .        .          .    . . . .                                                ",
"                               .       . ......  ......     .       ..          .        .          .    . . . .                  ....                          ",
"                               .       . .       .          .         ..        .        .          .    . . . .                                                ",
"                                .     .  .       .          .           ..      .        .          .    . . . .                                                ",
"                                ..   ..  .       .          .             ..    .        .          .    . . . .                                                ",
"                                  ...    .       .          .               .   .        .........  .    .............                                          ",
"                                                                                                                                                                ",
"                                                                                                                                                                ",
"                                                                                                                                                                ",
"                                                                                                                                                                ",
"  ....                ....      ....                ....      ....      ....      ....      ....                                                                ",
"                                                                                                                                                                ",
".      .         .         .         .  .      .  .         .                .  .      .  .      .                                                              ",
".      .         .         .         .  .      .  .         .                .  .      .  .      .                                                              ",
".      .         .         .         .  .      .  .         .                .  .      .  .      .                                                              ",
".      .         .         .         .  .      .  .         .                .  .      .  .      .                                                              ",
"                                                                                                                                                                ",
"                      ....      ....      ....      ....      ....                ....      ....                                                                ",
"                                                                                                                                                                ",
".      .         .  .                .         .         .  .      .         .  .      .         .                                                              ",
".      .         .  .                .         .         .  .      .         .  .      .         .                                                              ",
".      .         .  .                .         .         .  .      .         .  .      .         .                                                              ",
".      .         .  .                .         .         .  .      .         .  .      .         .                                                              ",
"                                                                                                                                                                ",
"  ....                ....      ....                ....      ....                ....      ....                                                                ",
"                                                                                                                                                                ",
"            ....                                    ....      ....      ....                                                        ....                        ",
"                                                                                                                                                                ",
"          .      .  .                          .  .         .         .         .                .         .  .         .         .      .                      ",
"          .      .  .                          .  .         .         .         .                .         .  .         .         .      .                      ",
"          .      .  .                          .  .         .         .         .                .         .  .         .         .      .                      ",
"          .      .  .                          .  .         .         .         .                .         .  .         .         .      .                      ",
"                                                                                                                                                                ",
"            ....      ....      ....      ....      ....      ....                ....                          ....                          ....      ....    ",
"                                                                                                                                                                ",
"          .      .  .      .  .         .      .  .         .         .      .  .      .         .         .  .         .         .      .  .      .  .      .  ",
"          .      .  .      .  .         .      .  .         .         .      .  .      .         .         .  .         .         .      .  .      .  .      .  ",
"          .      .  .      .  .         .      .  .         .         .      .  .      .         .         .  .         .         .      .  .      .  .      .  ",
"          .      .  .      .  .         .      .  .         .         .      .  .      .         .         .  .         .         .      .  .      .  .      .  ",
"                                                                                                                                                                ",
"                      ....      ....      ....      ....                ....                          ....      ....      ....                          ....    ",
"                                                                                                                                                                ",
"  ....      ....                ....                                                                                                                            ",
"                                                                                                                                                                ",
".      .  .      .            .         .                   .      .  .         .      .  .      .         .                                                    ",
".      .  .      .            .         .                   .      .  .         .      .  .      .         .                                                    ",
".      .  .      .            .         .                   .      .  .         .      .  .      .         .                                                    ",
".      .  .      .            .         .                   .      .  .         .      .  .      .         .                                                    ",
"                                                                                                                                                                ",
"  ....      ....      ....      ....      ....                                    ....      ....      ....                                                      ",
"                                                                                                                                                                ",
".                .  .                .  .         .      .  .      .  .      .  .      .         .  .                                                           ",
".                .  .                .  .         .      .  .      .  .      .  .      .         .  .                                                           ",
".                .  .                .  .         .      .  .      .  .      .  .      .         .  .                                                           ",
".                .  .                .  .         .      .  .      .  .      .  .      .         .  .                                                           ",
"                                                                                                                                                                ",
"                                ....      ....      ....      ....      ....                ....                                                        ....    ",
"                                                                                                                                                                ",
"            ....                                    ....      ....      ....                                                        ....                        ",
"                                                                                                                                                                ",
"          .      .  .                          .  .         .         .         .                .         .  .         .         .      .                      ",
"          .      .  .                          .  .         .         .         .                .         .  .         .         .      .                      ",
"          .      .  .                          .  .         .         .         .                .         .  .         .         .      .                      ",
"          .      .  .                          .  .         .         .         .                .         .  .         .         .      .                      ",
"                                                                                                                                                                ",
"            ....      ....      ....      ....      ....      ....                ....                          ....                          ....      ....    ",
"                                                                                                                                                                ",
"          .      .  .      .  .         .      .  .         .         .      .  .      .         .         .  .         .         .      .  .      .  .      .  ",
"          .      .  .      .  .         .      .  .         .         .      .  .      .         .         .  .         .         .      .  .      .  .      .  ",
"          .      .  .      .  .         .      .  .         .         .      .  .      .         .         .  .         .         .      .  .      .  .      .  ",
"          .      .  .      .  .         .      .  .         .         .      .  .      .         .         .  .         .         .      .  .      .  .      .  ",
"                                                                                                                                                                ",
"                      ....      ....      ....      ....                ....                          ....      ....      ....                          ....    ",
"                                                                                                                                                                ",
"  ....      ....                ....                                                                                                                            ",
"                                                                                                                                                                ",
".      .  .      .            .         .                   .      .  .         .      .  .      .         .                                                    ",
".      .  .      .            .         .                   .      .  .         .      .  .      .         .                                                    ",
".      .  .      .            .         .                   .      .  .         .      .  .      .         .                                                    ",
".      .  .      .            .         .                   .      .  .         .      .  .      .         .                                                    ",
"                                                                                                                                                                ",
"  ....      ....      ....      ....      ....                                    ....      ....      ....                                                      ",
"                                                                                                                                                                ",
".                .  .                .  .         .      .  .      .  .      .  .      .         .  .                                                           ",
".                .  .                .  .         .      .  .      .  .      .  .      .         .  .                                                           ",
".                .  .                .  .         .      .  .      .  .      .  .      .         .  .                                                           ",
".                .  .                .  .         .      .  .      .  .      .  .      .         .  .                                                           ",
"                                                                                                                                                                ",
"                                ....      ....      ....      ....      ....                ....                                                        ....    ",
"                                                                                                                                                                "
};
