/* XPM */
static char * 9bitRPR_xpm[] = {
"160 64 2 1",
" 	c None",
".	c #000000",
"                                                                                                                                                                ",
"                                                                                                                                                                ",
"                                                                                                                                                                ",
"                                                                                                                                                                ",
"                                                                                                                                                                ",
"                                                                                                                                                                ",
"                                                                                                                                                                ",
"                                                                                                                                                                ",
"                                                                                                                                                                ",
"                                                                                                                                                                ",
"                                                                                                                                                                ",
"                                                                                                                                                                ",
"                                                                                                                                                                ",
"                                                                                                                                                                ",
"                                                                                                                                                                ",
"                                                                                                                                                                ",
"                                                                                                                                                                ",
" ....        .       ....      ....         .     ......     ....     ......     ....      ....                                                                 ",
".    .      ..      .    .    .    .       ..     .         .    .         .    .    .    .    .                            .                                   ",
".    .     . .      .    .    .    .      . .     .         .             .     .    .    .    .                            .                                   ",
".    .       .           .         .      . .     .....     .....         .     .    .    .    .              .    .       .                                    ",
".    .       .          .       ...      .  .          .    .    .       .       ....     .    .               .  .        .                                    ",
".    .       .         .           .    .   .          .    .    .       .      .    .     .....                ..        .                                     ",
".    .       .        .       .    .    ......         .    .    .      .       .    .         .                ..        .                                     ",
".    .       .       .        .    .        .     .    .    .    .      .       .    .    .    .               .  .      .                                      ",
" ....        .      ......     ....         .      ....      ....       .        ....      ....               .    .     .                                      ",
"                                                                                                                                                                ",
"                                                                                                                                                                ",
"                                                                                                                                                                ",
"                                                                                                                                                                ",
"                                                                                                                                                                ",
"                                                                                                                                                                ",
"                                                                                                                                                                ",
"             .      ......      ...     .....     .......   .......     ...     .     .   .               .   .    .    .         .       . .     .     ...     ",
"             .      .     .    .   .    .    .    .         .          .   .    .     .   .               .   .   .     .         ..     .. ..    .    .   .    ",
"            . .     .     .   .     .   .     .   .         .         .     .   .     .   .               .   .  .      .         ..     .. . .   .   .     .   ",
"            . .     .     .   .         .     .   .         .         .         .     .   .               .   . .       .         . .   . . . .   .   .     .   ",
"           .   .    ......    .         .     .   .....     .....     .   ...   .......   .               .   ..        .         . .   . . .  .  .   .     .   ",
"           .   .    .     .   .         .     .   .         .         .     .   .     .   .         .     .   . .       .         .  . .  . .   . .   .     .   ",
"           .....    .     .   .     .   .     .   .         .         .     .   .     .   .         .     .   .  .      .         .  . .  . .   . .   .     .   ",
"          .     .   .     .    .   .    .    .    .         .          .   .    .     .   .          .   .    .   .     .         .   .   . .    ..    .   .    ",
"          .     .   ......      ...     .....     .......   .           ...     .     .   .           ...     .    .    .......   .   .   . .     .     ...     ",
"                                                                                                                                                                ",
"                                                                                                                                                                ",
"                                                                                                                                                                ",
"                                                                                                                                                                ",
"                                                                                                                                                                ",
"                                                                                                                                                                ",
"                                                                                                                                                                ",
"......      ...     ......     .....    .......   .     .   .     .   .   .   . .     .   .       . .......                                                     ",
".     .    .   .    .     .   .     .      .      .     .   .     .   .   .   . .     .    .     .        .                                                     ",
".     .   .     .   .     .   .     .      .      .     .   .     .   .   .   .  .   .      .   .        .                                                      ",
".     .   .     .   .     .   .            .      .     .    .   .     . . . .    . .        . .        .                                                       ",
"......    .     .   ......     .....       .      .     .    .   .     . . . .     .          .        .                                                        ",
".         .     .   .    .          .      .      .     .     . .      . . . .    . .         .       .                                                         ",
".         .   . .   .     .   .     .      .      .     .     . .       .   .    .   .        .      .                                                          ",
".          .   .    .     .   .     .      .       .   .       .        .   .   .     .       .     .                                                           ",
".           ... .   .     .    .....       .        ...        .        .   .   .     .       .     .......                                                     ",
"                                                                                                                                                                ",
"                                                                                                                                                                ",
"                                                                                                                                                                ",
"                                                                                                                                                                ",
"                                                                                                                                                                ",
"                                                                                                                                                                "};
