/* XPM */
static char * pixel12x10_xpm[] = {
"176 96 2 1",
" 	c #FFFFFF",
".	c #000000",
"            ..        ..  ..       ..  ..     ......    ..   ..              ..            ..      ..                                                                    ..     ",
"            ..        ..  ..       ..  ..    ........  ....  ..              ..           ...      ...                                                                   ..     ",
"            ..        ..  ..       ..  ..   ... .. ... .... ...              ..          ...        ...          ..                                                     ...     ",
"            ..        ..  ..     .......... ..  ..  ..  ..  ..               ..          ..          ..          ..        ..                                           ..      ",
"            ..        ..  ..     .......... ... ..         ...               ..         ...          ...     ..  ..  ..    ..                                          ...      ",
"            ..                     ..  ..    .......       ..                           ..            ..     ..........    ..                                          ..       ",
"            ..                     ..  ..     .......      ..                           ..            ..      ........  ........              ........                 ..       ",
"            ..                   ..........     .. ...    ...                           ...          ...        ....    ........              ........                ...       ",
"            ..                   .......... ..  ..  ..    ..  ..                         ..          ..        ......      ..                                         ..        ",
"                                   ..  ..   ... .. ...   ... ....                        ...        ...       ...  ...     ..       ..                               ...        ",
"            ..                     ..  ..    ........    ..  ....                         ...      ...        ..    ..     ..       ..                    ..         ..         ",
"            ..                     ..  ..     ......     ..   ..                           ..      ..                                .                    ..         ..         ",
"                                                                                                                                    .                                           ",
"                                                                                                                                                                                ",
"                                                                                                                                                                                ",
"                                                                                                                                                                                ",
"  ......       ..       ......     ......        ...   ..........   ......   ..........   ......     ......                                                            ......   ",
" ........     ...      ........   ........      ....   ..........  ........  ..........  ........   ........                            ..                ..          ........  ",
"...    ...   ....     ...    ... ...    ...    .....   ..         ...    ..  ..     ..   ..    ..  ...    ...                          ...                ...        ...    ... ",
"..    ....  .....     ..      .. ..      ..   ... ..   ..         ..               ...   ..    ..  ..      ..                         ...                  ...       ..      .. ",
"..   ..... ... ..            ...        ...  ...  ..   ........   .. .....         ..     ......   ..      ..  ..         ..         ...       ........     ...             ... ",
"..  ... .. ..  ..          ....      .....  ...   ..   .........  .........       ...    ........  ...    ...  ..         ..        ...        ........      ...           ...  ",
".. ...  ..     ..        .....       .....  ..    ..          ... ...    ...      ..    ...    ...  .........                       ...                      ...          ...   ",
".....   ..     ..       ....            ... ..........         .. ..      ..     ...    ..      ..   ..... ..                        ...                    ...          ...    ",
"....    ..     ..      ...       ..      .. .......... ..      .. ..      ..     ..     ..      ..         ..                         ...      ........    ...           ..     ",
"...    ...     ..     ...        ...    ...       ..   ...    ... ...    ...    ...     ...    ... ..     ...                          ...     ........   ...                   ",
" ........   ........  ..........  ........        ..    ........   ........     ..       ........  .........   ..         ..            ..                ..             ..     ",
"  ......    ........  ..........   ......         ..     ......     ......      ..        ......    .......    ..         ..                                             ..     ",
"                                                                                                                           .                                                    ",
"                                                                                                                          .                                                     ",
"                                                                                                                                                                                ",
"                                                                                                                                                                                ",
"   .....       ..     ........      ......  .......    .......... ..........    ......  ..      .. ......         ...... ..      .. ..         ..      .. ..      ..   ......   ",
"  .......     ....    .........    ........ ........   .......... ..........   ........ ..      .. ......         ...... ..     ... ..         ...    ... ...     ..  ........  ",
" ...   ...    ....    ..     ...  ...    .. ..    ...  ..         ..          ...    .. ..      ..   ..             ..   ..    ...  ..         ....  .... ....    .. ...    ... ",
"...     ..   ..  ..   ..      .. ...        ..     ... ..         ..         ...        ..      ..   ..             ..   ..   ...   ..         .......... .....   .. ..      .. ",
"..  ... ..   ..  ..   ..     ... ..         ..      .. ..         ..         ..         ..      ..   ..             ..   ..  ...    ..         .. .... .. .. ..   .. ..      .. ",
".. .......   ..  ..   .........  ..         ..      .. ........   ........   ..   ..... ..........   ..             ..   ......     ..         ..  ..  .. .. ...  .. ..      .. ",
".. ..  ...  ..    ..  .........  ..         ..      .. ........   ........   ..   ..... ..........   ..             ..   ......     ..         ..  ..  .. ..  ... .. ..      .. ",
".. .......  ........  ..     ... ..         ..      .. ..         ..         ..      .. ..      ..   ..             ..   ..  ...    ..         ..      .. ..   .. .. ..      .. ",
"... .....   ........  ..      .. ...        ..     ... ..         ..         ...     .. ..      ..   ..       ..    ..   ..   ...   ..         ..      .. ..   ..... ..      .. ",
" ...       ..      .. ..     ...  ...    .. ..    ...  ..         ..          ...   ... ..      ..   ..       ...  ...   ..    ...  ..         ..      .. ..    .... ...    ... ",
"  ........ ..      .. .........    ........ ........   .......... ..           .......  ..      .. ......      ......    ..     ... .......... ..      .. ..     ...  ........  ",
"   ....... ..      .. ........      ......  .......    .......... ..            .....   ..      .. ......       ....     ..      .. .......... ..      .. ..      ..   ......   ",
"                                                                                                                                                                                ",
"                                                                                                                                                                                ",
"                                                                                                                                                                                ",
"                                                                                                                                                                                ",
"........     ......   ........     ......   .......... ..      .. ..      .. ..      .. ..      .. ..      .. .......... ....       ..         ....          ..                 ",
".........   ........  .........   ........  .......... ..      .. ..      .. ..      .. ..      .. ..      .. .......... ....       ..         ....         ....                ",
"..     ... ...    ... ..     ... ...    ...     ..     ..      .. ..      .. ..      .. ...    ... ...    ...        ..  ..         ...          ..        ......               ",
"..      .. ..      .. ..      .. ..      ..     ..     ..      .. ...    ... ..      ..  ...  ...   ..    ..        ...  ..          ..          ..       ...  ...              ",
"..      .. ..      .. ..      .. ...            ..     ..      ..  ..    ..  ...    ...   ......    ...  ...       ...   ..          ...         ..       ..    ..              ",
"..     ... ..      .. ..     ...  .......       ..     ..      ..  ..    ..   .. .. ..     ....      ..  ..       ...    ..           ..         ..                             ",
".........  ..  ..  .. .........    .......      ..     ..      ..  ...  ...   .. .. ..     ....      ......      ...     ..           ..         ..                             ",
"........   ..  ... .. ........          ...     ..     ..      ..   ..  ..    .. .. ..    ......      ....      ...      ..           ...        ..                             ",
"..         ..   ..... ..    ...  ..      ..     ..     ..      ..   ..  ..    .. .. ..   ...  ...      ..      ...       ..            ..        ..                             ",
"..         ...   ...  ..     ... ...    ...     ..     ...    ...   ......     ......   ...    ...     ..      ..        ..            ...       ..                             ",
"..          ......... ..      ..  ........      ..      ........     ....      ......   ..      ..     ..     .......... ....           ..     ....                             ",
"..           ..... .. ..      ..   ......       ..       ......       ..       ..  ..   ..      ..     ..     .......... ....           ..     ....                  .......... ",
"                                                                                                                                                                     .......... ",
"                                                                                                                                                                                ",
"                                                                                                                                                                                ",
"                                                                                                                                                                                ",
"                      ..                            ..               ....               ..                                ..         ....                                       ",
"                      ..                            ..              ......              ..           ..              ..   ..         ....                                       ",
"                      ..                            ..              ..  ..              ..           ..              ..   ..           ..                                       ",
"                      ..                            ..              ..                  ..                                ..           ..                                       ",
"            .......   .. .....     ......      .... ..   ......     ..         ..... .. .. ....    ....              ..   ..    ..     ..      .. .. ..   .. ....      ......   ",
"            ........  .........   ........   .........  ........    ..        ......... ........   ....              ..   ..   ...     ..      .........  ........    ........  ",
"                  ..  ...    ... ...    ..  ...    ... ...    ..  ......     ...    ... ....  ...    ..              ..   ..  ...      ..      ... .. ... ...   ...  ...    ... ",
"            ........  ..      .. ..         ..      .. .........  ......     ..      .. ..     ..    ..              ..   ......       ..      ..  ..  .. ..     ..  ..      .. ",
"           .........  ..      .. ..         ..      .. ........     ..       ..      .. ..     ..    ..              ..   ......       ..      ..  ..  .. ..     ..  ..      .. ",
"           ..     ..  ...    ... ...    ..  ...    ... ..           ..       ...    ... ..     ..    ..              ..   ..  ...      ..      ..  ..  .. ..     ..  ...    ... ",
"           .........  .........   ........   ......... .........    ..        ......... ..     ..  ......            ..   ..   ...   ......    ..  ..  .. ..     ..   ........  ",
"            ..... ..  .. .....     ......     ..... ..  .......     ..         ........ ..     ..  ......            ..   ..    ..   ......    ..  ..  .. ..     ..    ......   ",
"                                                                                     ..                       ..     ..                                                         ",
"                                                                             ..     ...                       ...   ...                                                         ",
"                                                                             .........                         .......                                                          ",
"                                                                              .......                           .....                                                           ",
"                                              ..                                                                              ...     ..       ...                              ",
"                                              ..                                                                             ....     ..       ....                             ",
"                                              ..                                                                            ...       ..         ...                            ",
"                                            ......                                                                          ..        ..          ..                            ",
".. .....     ..... .. ..  ....    .......   ......     ..     ..  ..      .. ..      .. ...    ... ..      .. ..........    ..        ..          ..                            ",
".........   ......... .. ......  ........     ..       ..     ..  ..      .. ..      .. ....  .... ..      .. ..........    ..        ..          ..                            ",
"...    ... ...    ... .....  ... ..           ..       ..     ..  ...    ... ..  ..  ..   ......   ...    ...       ...    ..         ..           ..       ...   ..            ",
"..      .. ..      .. ....    .. ........     ..       ..     ..   ..    ..  ..  ..  ..    ....     ..    ..      ....    ...         ..           ...     .....  ..            ",
"..      .. ..      .. ...         ........    ..    .. ..    ...   ...  ...  ..  ..  ..    ....     ...   ..    ....      ...         ..           ...    ... .. ...            ",
"...    ... ...    ... ..                ..    ...  ... ...  ....    ..  ..   .. .... ..   ......     .......   ...        ...         ..           ...    ..  .....             ",
".........   ......... ..         .........     ......   ........    ......   .......... ....  ....    .....   ..........   ...        ..          ...     ..   ...              ",
"........     ........ ..         ........       ....     .... ..     ....     ...  ...  ...    ...      ...   ..........    ..        ..          ..                            ",
"..                 ..                                                                                   ..                  ..        ..          ..                            ",
"..                 ..                                                                                  ...                  ...       ..         ...                            ",
"..                 ..                                                                              ......                    ....     ..       ....                             ",
"..                 ..                                                                              .....                      ...     ..       ...                              "};
